X:1
T:Leitrim Fancy (Edor)
T:Leitrim Jig
M:6/8
L:1/8
S:"ITM Session Tunes vol 2" ("Sully")
R:jig
K:Edor
GBG FAF|E2B BAB|GBG FAF|D2A AFD|
G3 F3|E2B BAB|G2B dBG|ABG FED :|
G2B dBd|edB dBA|G2B dBG|ABG FED|
G2B d^cd|edB def|gfe dBG|ABG FED :|\
"last" G3 F3|E6 ||
